Catalina-light/status/24/microphone-sensitivity-medium.svg

<?xml version="1.0" encoding="UTF-8" standalone="no"?>
<!-- Created with Inkscape (http://www.inkscape.org/) -->

<svg
   xmlns:dc="http://purl.org/dc/elements/1.1/"
   xmlns:cc="http://creativecommons.org/ns#"
   xmlns:rdf="http://www.w3.org/1999/02/22-rdf-syntax-ns#"
   xmlns:svg="http://www.w3.org/2000/svg"
   xmlns="http://www.w3.org/2000/svg"
   xmlns:xlink="http://www.w3.org/1999/xlink"
   xmlns:sodipodi="http://sodipodi.sourceforge.net/DTD/sodipodi-0.dtd"
   xmlns:inkscape="http://www.inkscape.org/namespaces/inkscape"
   id="svg7384"
   style="enable-background:new"
   height="24"
   width="24"
   version="1.1"
   inkscape:version="0.92.4 5da689c313, 2019-01-14"
   sodipodi:docname="microphone-sensitivity-medium.svg">
  <sodipodi:namedview
     pagecolor="#a1a1a1"
     bordercolor="#666666"
     borderopacity="1"
     objecttolerance="10"
     gridtolerance="10"
     guidetolerance="10"
     inkscape:pageopacity="0"
     inkscape:pageshadow="2"
     inkscape:window-width="1920"
     inkscape:window-height="1027"
     id="namedview11"
     showgrid="true"
     inkscape:zoom="45.254836"
     inkscape:cx="6.0581439"
     inkscape:cy="13.164212"
     inkscape:window-x="0"
     inkscape:window-y="30"
     inkscape:window-maximized="1"
     inkscape:current-layer="svg7384"
     showguides="true"
     inkscape:guide-bbox="true">
    <inkscape:grid
       type="xygrid"
       id="grid843"
       spacingx="0.25"
       spacingy="0.25" />
    <sodipodi:guide
       position="6.25,4.5"
       orientation="0,1"
       id="guide928"
       inkscape:locked="false" />
    <sodipodi:guide
       position="6.75,14.5"
       orientation="0,1"
       id="guide934"
       inkscape:locked="false" />
    <sodipodi:guide
       position="12.5,13.25"
       orientation="1,0"
       id="guide936"
       inkscape:locked="false" />
  </sodipodi:namedview>
  <metadata
     id="metadata90">
    <rdf:RDF>
      <cc:Work
         rdf:about="">
        <dc:format>image/svg+xml</dc:format>
        <dc:type
           rdf:resource="http://purl.org/dc/dcmitype/StillImage" />
        <dc:title>Paper Symbolic Icon Theme</dc:title>
      </cc:Work>
    </rdf:RDF>
  </metadata>
  <title
     id="title8473">Paper Symbolic Icon Theme</title>
  <defs
     id="defs7386">
    <filter
       id="filter7554"
       style="color-interpolation-filters:sRGB">
      <feBlend
         id="feBlend7556"
         in2="BackgroundImage"
         mode="darken" />
    </filter>
    <filter
       style="color-interpolation-filters:sRGB"
       id="filter7554-5">
      <feBlend
         mode="darken"
         in2="BackgroundImage"
         id="feBlend7556-4" />
    </filter>
    <filter
       id="filter7554-6"
       style="color-interpolation-filters:sRGB">
      <feBlend
         mode="darken"
         in2="BackgroundImage"
         id="feBlend7556-6" />
    </filter>
    <linearGradient
       x1="8.9254236"
       y1="5.9997859"
       x2="8.9254236"
       y2="19"
       id="linearGradient2868"
       xlink:href="#linearGradient3678"
       gradientUnits="userSpaceOnUse"
       gradientTransform="translate(-1,-2)" />
    <linearGradient
       id="linearGradient3678">
      <stop
         id="stop3680"
         style="stop-color:#ffffff;stop-opacity:1"
         offset="0" />
      <stop
         id="stop3682"
         style="stop-color:#e6e6e6;stop-opacity:1"
         offset="1" />
    </linearGradient>
    <linearGradient
       x1="9"
       y1="3"
       x2="9"
       y2="21"
       id="linearGradient2393"
       xlink:href="#linearGradient3678"
       gradientUnits="userSpaceOnUse"
       gradientTransform="translate(-2,-1)" />
    <linearGradient
       gradientTransform="translate(-1.0001235,-5)"
       gradientUnits="userSpaceOnUse"
       xlink:href="#linearGradient3587-6-5-3"
       id="linearGradient2398"
       y2="21"
       x2="14"
       y1="3"
       x1="14" />
    <linearGradient
       id="linearGradient3587-6-5-3">
      <stop
         offset="0"
         style="stop-color:#000000;stop-opacity:1"
         id="stop3589-9-2-0" />
      <stop
         offset="1"
         style="stop-color:#363636;stop-opacity:1"
         id="stop3591-7-4-7" />
    </linearGradient>
    <linearGradient
       gradientTransform="translate(-52.096803,-11.363826)"
       gradientUnits="userSpaceOnUse"
       xlink:href="#linearGradient3587-6-5-3"
       id="linearGradient2395"
       y2="27.363825"
       x2="66.09668"
       y1="9.3638258"
       x1="66.09668" />
    <linearGradient
       gradientUnits="userSpaceOnUse"
       xlink:href="#linearGradient3587-6-5-3"
       id="linearGradient7390"
       y2="13.496136"
       x2="4.9554448"
       y1="2.6841583"
       x1="4.9554448" />
    <linearGradient
       gradientUnits="userSpaceOnUse"
       xlink:href="#linearGradient3587-6-5-3"
       id="linearGradient7392"
       y2="11.649005"
       x2="7.9109159"
       y1="4.5762329"
       x1="7.9109159" />
    <linearGradient
       gradientUnits="userSpaceOnUse"
       xlink:href="#linearGradient3587-6-5-3"
       id="linearGradient7394"
       y2="13.317288"
       x2="10.186814"
       y1="2.7742527"
       x1="10.186814" />
    <linearGradient
       gradientUnits="userSpaceOnUse"
       xlink:href="#linearGradient3587-6-5-3"
       id="linearGradient7396"
       y2="15.183488"
       x2="13.917011"
       y1="0.88217813"
       x1="13.917011" />
    <linearGradient
       id="linearGradient5263">
      <stop
         offset="0"
         style="stop-color:#a0d5ff;stop-opacity:1"
         id="stop5265" />
      <stop
         offset="1"
         style="stop-color:#a0d5ff;stop-opacity:1"
         id="stop5267" />
    </linearGradient>
    <filter
       style="color-interpolation-filters:sRGB"
       id="filter7554-7">
      <feBlend
         mode="darken"
         in2="BackgroundImage"
         id="feBlend7556-0" />
    </filter>
    <filter
       style="color-interpolation-filters:sRGB"
       id="filter7554-35">
      <feBlend
         mode="darken"
         in2="BackgroundImage"
         id="feBlend7556-35" />
    </filter>
    <filter
       id="filter7554-5-9"
       style="color-interpolation-filters:sRGB">
      <feBlend
         id="feBlend7556-4-5"
         in2="BackgroundImage"
         mode="darken" />
    </filter>
    <filter
       style="color-interpolation-filters:sRGB"
       id="filter7554-6-3">
      <feBlend
         id="feBlend7556-6-2"
         in2="BackgroundImage"
         mode="darken" />
    </filter>
    <filter
       id="filter7554-2"
       style="color-interpolation-filters:sRGB">
      <feBlend
         id="feBlend7556-9"
         in2="BackgroundImage"
         mode="darken" />
    </filter>
    <filter
       id="filter7554-29"
       style="color-interpolation-filters:sRGB">
      <feBlend
         id="feBlend7556-3"
         in2="BackgroundImage"
         mode="darken" />
    </filter>
    <filter
       id="filter7554-0"
       style="color-interpolation-filters:sRGB">
      <feBlend
         id="feBlend7556-5"
         in2="BackgroundImage"
         mode="darken" />
    </filter>
    <filter
       id="filter7554-3"
       style="color-interpolation-filters:sRGB">
      <feBlend
         id="feBlend7556-48"
         in2="BackgroundImage"
         mode="darken" />
    </filter>
    <filter
       style="color-interpolation-filters:sRGB"
       id="filter7554-5-3">
      <feBlend
         mode="darken"
         in2="BackgroundImage"
         id="feBlend7556-4-4" />
    </filter>
    <filter
       id="filter7554-6-8"
       style="color-interpolation-filters:sRGB">
      <feBlend
         mode="darken"
         in2="BackgroundImage"
         id="feBlend7556-6-4" />
    </filter>
    <filter
       style="color-interpolation-filters:sRGB"
       id="filter7554-7-7">
      <feBlend
         mode="darken"
         in2="BackgroundImage"
         id="feBlend7556-0-2" />
    </filter>
    <filter
       style="color-interpolation-filters:sRGB"
       id="filter7554-61">
      <feBlend
         mode="darken"
         in2="BackgroundImage"
         id="feBlend7556-98" />
    </filter>
    <filter
       id="filter7554-5-8"
       style="color-interpolation-filters:sRGB">
      <feBlend
         id="feBlend7556-4-6"
         in2="BackgroundImage"
         mode="darken" />
    </filter>
    <filter
       style="color-interpolation-filters:sRGB"
       id="filter7554-6-84">
      <feBlend
         id="feBlend7556-6-1"
         in2="BackgroundImage"
         mode="darken" />
    </filter>
    <filter
       id="filter7554-7-71"
       style="color-interpolation-filters:sRGB">
      <feBlend
         id="feBlend7556-0-3"
         in2="BackgroundImage"
         mode="darken" />
    </filter>
    <filter
       id="filter7554-35-2"
       style="color-interpolation-filters:sRGB">
      <feBlend
         id="feBlend7556-35-1"
         in2="BackgroundImage"
         mode="darken" />
    </filter>
    <filter
       style="color-interpolation-filters:sRGB"
       id="filter7554-5-9-1">
      <feBlend
         mode="darken"
         in2="BackgroundImage"
         id="feBlend7556-4-5-9" />
    </filter>
    <filter
       id="filter7554-6-3-8"
       style="color-interpolation-filters:sRGB">
      <feBlend
         mode="darken"
         in2="BackgroundImage"
         id="feBlend7556-6-2-4" />
    </filter>
    <filter
       style="color-interpolation-filters:sRGB"
       id="filter7554-2-7">
      <feBlend
         mode="darken"
         in2="BackgroundImage"
         id="feBlend7556-9-4" />
    </filter>
    <filter
       style="color-interpolation-filters:sRGB"
       id="filter7554-29-9">
      <feBlend
         mode="darken"
         in2="BackgroundImage"
         id="feBlend7556-3-2" />
    </filter>
    <filter
       style="color-interpolation-filters:sRGB"
       id="filter7554-0-9">
      <feBlend
         mode="darken"
         in2="BackgroundImage"
         id="feBlend7556-5-0" />
    </filter>
    <filter
       style="color-interpolation-filters:sRGB"
       id="filter7554-3-6">
      <feBlend
         mode="darken"
         in2="BackgroundImage"
         id="feBlend7556-48-5" />
    </filter>
    <filter
       id="filter7554-5-3-1"
       style="color-interpolation-filters:sRGB">
      <feBlend
         id="feBlend7556-4-4-5"
         in2="BackgroundImage"
         mode="darken" />
    </filter>
    <filter
       style="color-interpolation-filters:sRGB"
       id="filter7554-6-8-6">
      <feBlend
         id="feBlend7556-6-4-2"
         in2="BackgroundImage"
         mode="darken" />
    </filter>
    <filter
       id="filter7554-7-7-1"
       style="color-interpolation-filters:sRGB">
      <feBlend
         id="feBlend7556-0-2-4"
         in2="BackgroundImage"
         mode="darken" />
    </filter>
    <filter
       style="color-interpolation-filters:sRGB"
       id="filter7554-22">
      <feBlend
         mode="darken"
         in2="BackgroundImage"
         id="feBlend7556-01" />
    </filter>
    <filter
       id="filter7554-5-6"
       style="color-interpolation-filters:sRGB">
      <feBlend
         id="feBlend7556-4-2"
         in2="BackgroundImage"
         mode="darken" />
    </filter>
    <filter
       style="color-interpolation-filters:sRGB"
       id="filter7554-6-6">
      <feBlend
         id="feBlend7556-6-16"
         in2="BackgroundImage"
         mode="darken" />
    </filter>
    <filter
       id="filter7554-7-6"
       style="color-interpolation-filters:sRGB">
      <feBlend
         id="feBlend7556-0-1"
         in2="BackgroundImage"
         mode="darken" />
    </filter>
    <filter
       id="filter7554-35-9"
       style="color-interpolation-filters:sRGB">
      <feBlend
         id="feBlend7556-35-4"
         in2="BackgroundImage"
         mode="darken" />
    </filter>
    <filter
       style="color-interpolation-filters:sRGB"
       id="filter7554-5-9-0">
      <feBlend
         mode="darken"
         in2="BackgroundImage"
         id="feBlend7556-4-5-1" />
    </filter>
    <filter
       id="filter7554-6-3-7"
       style="color-interpolation-filters:sRGB">
      <feBlend
         mode="darken"
         in2="BackgroundImage"
         id="feBlend7556-6-2-3" />
    </filter>
    <filter
       style="color-interpolation-filters:sRGB"
       id="filter7554-2-0">
      <feBlend
         mode="darken"
         in2="BackgroundImage"
         id="feBlend7556-9-3" />
    </filter>
    <filter
       style="color-interpolation-filters:sRGB"
       id="filter7554-29-5">
      <feBlend
         mode="darken"
         in2="BackgroundImage"
         id="feBlend7556-3-0" />
    </filter>
    <filter
       style="color-interpolation-filters:sRGB"
       id="filter7554-0-4">
      <feBlend
         mode="darken"
         in2="BackgroundImage"
         id="feBlend7556-5-6" />
    </filter>
    <filter
       style="color-interpolation-filters:sRGB"
       id="filter7554-3-8">
      <feBlend
         mode="darken"
         in2="BackgroundImage"
         id="feBlend7556-48-4" />
    </filter>
    <filter
       id="filter7554-5-3-0"
       style="color-interpolation-filters:sRGB">
      <feBlend
         id="feBlend7556-4-4-0"
         in2="BackgroundImage"
         mode="darken" />
    </filter>
    <filter
       style="color-interpolation-filters:sRGB"
       id="filter7554-6-8-64">
      <feBlend
         id="feBlend7556-6-4-9"
         in2="BackgroundImage"
         mode="darken" />
    </filter>
    <filter
       id="filter7554-7-7-9"
       style="color-interpolation-filters:sRGB">
      <feBlend
         id="feBlend7556-0-2-0"
         in2="BackgroundImage"
         mode="darken" />
    </filter>
  </defs>
  <g
     style="fill:#ffffff;fill-opacity:1;stroke:none;stroke-opacity:1;enable-background:new"
     id="g908"
     transform="translate(-1,-1)" />
  <path
     style="fill:#f5f5f5;fill-opacity:0.39215687;stroke:none;stroke-width:1px;stroke-linecap:butt;stroke-linejoin:miter;stroke-opacity:1"
     d="m 8.75,19.5 v 1 h 7.5 v -1 z"
     id="path111"
     inkscape:connector-curvature="0"
     sodipodi:nodetypes="ccccc" />
  <path
     style="fill:#f5f5f5;fill-opacity:0.39215687;stroke:none;stroke-width:1px;stroke-linecap:butt;stroke-linejoin:miter;stroke-opacity:1"
     d="M 12 17.640625 L 12 19.5 L 13 19.5 L 13 17.640625 C 12.666721 17.673128 12.333279 17.673128 12 17.640625 z "
     id="path918" />
  <path
     style="fill:#f5f5f5;fill-opacity:0.39215687;stroke:none;stroke-width:0.2;stroke-linecap:butt;stroke-linejoin:miter;stroke-miterlimit:4;stroke-dasharray:none;stroke-opacity:1"
     d="m 16.5,12.25 c 0,5.5 -8,5.5 -8,0 h -1 c 0,7.25 10,7.25 10,0 z"
     id="path920"
     inkscape:connector-curvature="0"
     sodipodi:nodetypes="ccccc" />
  <path
     style="opacity:1;fill:#f5f5f5;fill-opacity:0.39215687;stroke:none;stroke-width:0.2;stroke-linecap:round;stroke-linejoin:round;stroke-miterlimit:4;stroke-dasharray:none;stroke-dashoffset:0;stroke-opacity:1;paint-order:fill markers stroke"
     d="M 12.5 3.546875 C 10.838 3.546875 9.5 4.884875 9.5 6.546875 L 9.5 12.546875 C 9.5 14.208875 10.838 15.546875 12.5 15.546875 C 14.162 15.546875 15.5 14.208875 15.5 12.546875 L 15.5 6.546875 C 15.5 4.884875 14.162 3.546875 12.5 3.546875 z M 12.5 4.25 C 13.7465 4.25 14.75 5.2535 14.75 6.5 L 14.75 9.5 L 10.25 9.5 L 10.25 6.5 C 10.25 5.2535 11.2535 4.25 12.5 4.25 z "
     id="rect924" />
  <path
     style="fill:#f5f5f5;fill-opacity:0.39215687;stroke:none;stroke-width:1px;stroke-linecap:butt;stroke-linejoin:miter;stroke-opacity:1"
     d="M 8.5,12.25 V 9.5 h -1 v 2.75 z"
     id="path930"
     inkscape:connector-curvature="0"
     sodipodi:nodetypes="ccccc" />
  <path
     inkscape:connector-curvature="0"
     id="path932"
     d="M 17.5,12.25 V 9.5 h -1 v 2.75 z"
     style="fill:#f5f5f5;fill-opacity:0.39215687;stroke:none;stroke-width:1px;stroke-linecap:butt;stroke-linejoin:miter;stroke-opacity:1"
     sodipodi:nodetypes="ccccc" />
</svg>

<svg width="24" height="24" enable-background="new" version="1.1" xmlns="http://www.w3.org/2000/svg">
<path d="m8.75 19.5v1h7.5v-1z" fill="#f5f5f5" fill-opacity=".39216"/>
<path d="m12 17.641v1.8594h1v-1.8594c-0.33328 0.032503-0.66672 0.032503-1 0z" fill="#f5f5f5" fill-opacity=".39216"/>
<path d="m16.5 12.25c0 5.5-8 5.5-8 0h-1c0 7.25 10 7.25 10 0z" fill="#f5f5f5" fill-opacity=".39216"/>
<path d="m12.5 3.5469c-1.662 0-3 1.338-3 3v6c0 1.662 1.338 3 3 3s3-1.338 3-3v-6c0-1.662-1.338-3-3-3zm0 0.70312c1.2465 0 2.25 1.0035 2.25 2.25v3h-4.5v-3c0-1.2465 1.0035-2.25 2.25-2.25z" fill="#f5f5f5" fill-opacity=".39216" style="paint-order:fill markers stroke"/>
<path d="m8.5 12.25v-2.75h-1v2.75z" fill="#f5f5f5" fill-opacity=".39216"/>
<path d="m17.5 12.25v-2.75h-1v2.75z" fill="#f5f5f5" fill-opacity=".39216"/>
</svg>
